docs/.gitbook/assets/icon-lorry-16@dark.svg

<svg width="32" height="32" viewBox="0 0 16 16" fill="none" xmlns="http://www.w3.org/2000/svg">
<rect x="0" y="0" width="16" height="16" fill="#181c1f"/>
<path fill-rule="evenodd" clip-rule="evenodd" d="M1 3.75C1 2.7835 1.7835 2 2.75 2H9.25C10.2165 2 11 2.7835 11 3.75V5H12.25C13.7688 5 15 6.23122 15 7.75V11.25C15 11.6642 14.6642 12 14.25 12H14C14 13.1046 13.1046 14 12 14C10.8954 14 10 13.1046 10 12H7C7 13.1046 6.10457 14 5 14C3.89543 14 3 13.1046 3 12H1.75C1.33579 12 1 11.6642 1 11.25V3.75ZM3.67709 10.5C4.02965 10.1888 4.49278 10 5 10C5.50722 10 5.97035 10.1888 6.32291 10.5H9.5V5.75V3.75C9.5 3.61193 9.38807 3.5 9.25 3.5H2.75C2.61193 3.5 2.5 3.61193 2.5 3.75V10.5H3.67709ZM11 6.5V10.2677C11.294 10.0977 11.6356 10 12 10C12.5072 10 12.9703 10.1888 13.3229 10.5H13.5V7.75C13.5 7.05964 12.9404 6.5 12.25 6.5H11ZM12.396 11.6947C12.3046 11.5763 12.1612 11.5 12 11.5C11.8369 11.5 11.6921 11.5773 11.5996 11.7004C11.5369 11.7839 11.5 11.8866 11.5 12C11.5 12.2761 11.7239 12.5 12 12.5C12.2761 12.5 12.5 12.2761 12.5 12C12.5 11.8898 12.4644 11.7879 12.404 11.7053C12.4013 11.7018 12.3986 11.6983 12.396 11.6947ZM5.396 11.6947C5.30457 11.5763 5.16119 11.5 5 11.5C4.72386 11.5 4.5 11.7239 4.5 12C4.5 12.2761 4.72386 12.5 5 12.5C5.27614 12.5 5.5 12.2761 5.5 12C5.5 11.8898 5.46436 11.788 5.40397 11.7053C5.40129 11.7018 5.39863 11.6983 5.396 11.6947Z" fill="#fff"/>
</svg>

<svg xmlns="http://www.w3.org/2000/svg" width="32" height="32" fill="none" viewBox="0 0 16 16"><path fill="#181c1f" d="M0 0h16v16H0z"/><path fill="#fff" fill-rule="evenodd" d="M1 3.75C1 2.784 1.784 2 2.75 2h6.5c.966 0 1.75.784 1.75 1.75V5h1.25A2.75 2.75 0 0 1 15 7.75v3.5a.75.75 0 0 1-.75.75H14a2 2 0 1 1-4 0H7a2 2 0 1 1-4 0H1.75a.75.75 0 0 1-.75-.75zm2.677 6.75c.353-.311.816-.5 1.323-.5s.97.189 1.323.5H9.5V3.75a.25.25 0 0 0-.25-.25h-6.5a.25.25 0 0 0-.25.25v6.75zM11 6.5v3.768a1.99 1.99 0 0 1 2.323.232h.177V7.75c0-.69-.56-1.25-1.25-1.25zm1.396 5.195a.5.5 0 1 0 .008.01zm-7 0a.5.5 0 1 0-.791.609.5.5 0 0 0 .791-.61" clip-rule="evenodd"/></svg>
